cutejava-front/src/assets/icons/svg/space-alloc.svg

<?xml version="1.0" standalone="no"?><!DOCTYPE svg PUBLIC "-//W3C//DTD SVG 1.1//EN" "http://www.w3.org/Graphics/SVG/1.1/DTD/svg11.dtd"><svg t="1608282922408" class="icon" viewBox="0 0 1024 1024" version="1.1" xmlns="http://www.w3.org/2000/svg" p-id="2924" xmlns:xlink="http://www.w3.org/1999/xlink" width="200" height="200"><defs><style type="text/css"></style></defs><path d="M184.746667 838.826667v-191.146667l-75.52-40.96v308.053333h307.626666l-40.533333-75.946666H184.746667zM184.746667 184.746667h192l40.533333-75.52H109.226667v309.333333l75.52-40.106667V184.746667zM838.826667 184.746667v191.146666l75.946666 40.96V109.226667h-308.48l40.533334 75.52h192zM838.826667 838.826667h-192.426667l-40.533333 75.946666h308.906666v-308.053333l-75.946666 40.533333v191.573334z" p-id="2925"></path><path d="M1024 512l-335.36-176.64L512 0 335.36 335.36 0 512l335.786667 176.64 170.666666 326.826667 5.546667 8.533333 176.64-335.36z m-757.333333-24.746667l3.84-7.253333L341.333333 341.333333l144.213334-75.946666a53.76 53.76 0 0 1 49.92 0l7.253333 3.84L682.666667 341.333333l75.946666 144.213334a53.76 53.76 0 0 1 0 49.92L682.666667 682.666667l-144.213334 75.52a53.333333 53.333333 0 0 1-49.493333 0L341.333333 682.666667l-74.666666-145.92a53.76 53.76 0 0 1 0-49.493334z" p-id="2926"></path></svg>

<svg class="icon" viewBox="0 0 1024 1024" xmlns="http://www.w3.org/2000/svg" width="200" height="200"><defs><style/></defs><path d="M184.747 838.827V647.68l-75.52-40.96v308.053h307.626l-40.533-75.946H184.747zm0-654.08h192l40.533-75.52H109.227V418.56l75.52-40.107V184.747zm654.08 0v191.146l75.946 40.96V109.227h-308.48l40.534 75.52h192zm0 654.08H646.4l-40.533 75.946h308.906V606.72l-75.946 40.533v191.574z"/><path d="M1024 512L688.64 335.36 512 0 335.36 335.36 0 512l335.787 176.64 170.666 326.827L512 1024l176.64-335.36zm-757.333-24.747l3.84-7.253 70.826-138.667 144.214-75.946a53.76 53.76 0 0 1 49.92 0l7.253 3.84 139.947 72.106 75.946 144.214a53.76 53.76 0 0 1 0 49.92l-75.946 147.2-144.214 75.52a53.333 53.333 0 0 1-49.493 0l-147.627-75.52-74.666-145.92a53.76 53.76 0 0 1 0-49.494z"/></svg>
